Gruvbox-Material-Icons/panel/16/mouse-battery-full.svg

<svg xmlns="http://www.w3.org/2000/svg" width="16" height="16" version="1.1">
 <defs>
  <style id="current-color-scheme" type="text/css">
   .ColorScheme-Text { color:#ebdbb2; } .ColorScheme-Highlight { color:#458588; }
  </style>
 </defs>
 <path style="fill:currentColor" class="ColorScheme-Text" d="m 2.5,1.99965 c -0.277,0 -0.5,0.223 -0.5,0.5 l 0,0.5 -2,-0.002 0,-3e-4 L 0,13.5 C 0,13.777 0.223,14 0.5,14 l 6,0 C 6.777,14 7,13.777 7,13.5 l 0,-10.50165 -0.5,0.002 -1.5,0 0,-0.5 c 0,-0.277 -0.223,-0.5 -0.5,-0.5 z"/>
 <path style="fill:currentColor" class="ColorScheme-Text" d="M 12,2.0000009 C 10.237272,2.0000009 9,3.507 9,6 l 3,0 z m 1,0 L 13,6 16,6 C 16,3.507 14.762728,2.0000009 13,2.0000009 Z M 9,7 9,9.5000005 C 9,11.993 10.419091,14 12.181818,14 l 0.636364,0 C 14.580909,14 16,11.993 16,9.5000005 L 16,7 12.818182,7 Z"/>
</svg>

<svg width="16" height="16" version="1.1" xmlns="http://www.w3.org/2000/svg">
  <defs>
    <style id="current-color-scheme" type="text/css">.ColorScheme-Text { color:#ebdbb2; } .ColorScheme-Highlight { color:#458588; } .ColorScheme-NeutralText { color:#fe8019; } .ColorScheme-PositiveText { color:#689d6a; } .ColorScheme-NegativeText { color:#fb4934; }</style>
  </defs>
  <path class="ColorScheme-Text" d="m2.5 2c-0.277 0-0.5 0.223-0.5 0.5v0.5l-2-2e-3v-3e-4 10.5c0 0.277 0.223 0.5 0.5 0.5h6c0.277 0 0.5-0.223 0.5-0.5v-10.5l-0.5 2e-3h-1.5v-0.5c0-0.277-0.223-0.5-0.5-0.5z" fill="currentColor"/>
  <path class="ColorScheme-Text" d="m12 2c-1.763 0-3 1.507-3 4h3zm1 0v4h3c0-2.493-1.237-4-3-4zm-4 5v2.5c0 2.493 1.419 4.5 3.182 4.5h0.6364c1.763 0 3.182-2.007 3.182-4.5v-2.5h-3.182z" fill="currentColor"/>
</svg>
